img/bookmark-fill.svg

<svg fill="none" height="24" viewBox="0 0 24 24" width="24" xmlns="http://www.w3.org/2000/svg"><path d="m4.52979 2.49777c-.65777.64075-1.02979 1.51261-1.02979 2.42457v15.61406c0 1.6162 1.85297 2.5075 3.15777 1.5987l5.34223-3.7171 5.3423 3.7171c1.3038.9078 3.1577.0164 3.1577-1.5997v-15.61306c0-.91196-.372-1.78382-1.0298-2.42457-.6573-.6403-1.5461-.99777-2.4702-.99777h-10c-.92409 0-1.81288.35747-2.47021.99777z" fill="#1c8aa9" stroke="#fff"/></svg>

<svg width="24" height="24" viewBox="0 0 24 24" fill="none" xmlns="http://www.w3.org/2000/svg">
<path d="M4.52979 2.49777C3.87202 3.13852 3.5 4.01038 3.5 4.92234V20.5364C3.5 22.1526 5.35297 23.0439 6.65777 22.1351L12 18.418L17.3423 22.1351C18.6461 23.0429 20.5 22.1515 20.5 20.5354V4.92234C20.5 4.01038 20.128 3.13852 19.4702 2.49777C18.8129 1.85747 17.9241 1.5 17 1.5H7C6.07591 1.5 5.18712 1.85747 4.52979 2.49777Z" fill="#1C8AA9" stroke="white"/>
</svg>
